svgs/sharp-solid/arrows-to-dotted-line.svg

<svg xmlns="http://www.w3.org/2000/svg" viewBox="0 0 448 512"><!--! Font Awesome Pro 6.6.0 by @fontawesome - https://fontawesome.com License - https://fontawesome.com/license (Commercial License) Copyright 2024 Fonticons, Inc. --><path d="M256 32l0-32L192 0l0 32 0 32-64 0 0 32 96 96 96-96 0-32-64 0 0-32zM192 448l0 32 0 32 64 0 0-32 0-32 64 0 0-32-96-96-96 96 0 32 64 0zM64 224L0 224l0 64 64 0 0-64zm32 0l0 64 64 0 0-64-64 0zm160 0l-64 0 0 64 64 0 0-64zm32 0l0 64 64 0 0-64-64 0zm96 0l0 64 64 0 0-64-64 0z"/></svg>

<svg xmlns="http://www.w3.org/2000/svg" viewBox="0 0 448 512"><!--! Font Awesome Pro 6.4.0 by @fontawesome - https://fontawesome.com License - https://fontawesome.com/license (Commercial License) Copyright 2023 Fonticons, Inc. --><path d="M256 32V0H192V32 64H128V96l96 96 96-96V64H256V32zM192 448v32 32h64V480 448h64V416l-96-96-96 96v32h64zM64 224H0v64H64V224zm32 0v64h64V224H96zm160 0H192v64h64V224zm32 0v64h64V224H288zm96 0v64h64V224H384z"/></svg>
